assets/img/components/datepicker-header.svg

<svg xmlns="http://www.w3.org/2000/svg" width="574" height="145" fill="none" viewBox="0 0 574 145"><path fill="#286ad8" d="M0 105.125V0c80.081 0 145 64.919 145 145H39.875C17.853 145 0 127.147 0 105.125M527.589 74.25c18.018 0 32.625-14.607 32.625-32.625S545.607 9 527.589 9s-32.625 14.607-32.625 32.625 14.607 32.625 32.625 32.625M573.245 145h-145V0z"/><path fill="#286ad8" d="M246.481 0c21.773 0 39.424 17.853 39.424 39.875V145h-145V0z"/><path fill="#286ad8" d="M284.659 145V0h72.336c40.131 0 72.664 32.46 72.664 72.5S397.126 145 356.995 145z"/><path fill="#5187df" d="M170.223 99.07a3.105 3.105 0 0 1 3.105-3.105h108.044a3.105 3.105 0 0 1 3.105 3.105v18.167a3.106 3.106 0 0 1-3.105 3.106H173.328a3.106 3.106 0 0 1-3.105-3.106z"/><path fill="#1b51cb" d="M267.782 114.346q-.512 0-.877-.365a1.2 1.2 0 0 1-.365-.878v-8.695q0-.512.365-.877t.877-.365h.621v-.621q0-.264.179-.443a.6.6 0 0 1 .442-.178q.264 0 .443.178a.6.6 0 0 1 .178.443v.621h4.969v-.621q0-.264.179-.443a.6.6 0 0 1 .442-.178q.264 0 .443.178a.6.6 0 0 1 .178.443v.621h.621a1.2 1.2 0 0 1 .878.365q.365.365.365.877v8.695a1.2 1.2 0 0 1-.365.878 1.2 1.2 0 0 1-.878.365zm0-1.243h8.695v-6.21h-8.695zm0-7.453h8.695v-1.242h-8.695zm4.348 3.727a.6.6 0 0 1-.443-.179.6.6 0 0 1-.178-.442q0-.264.178-.443a.6.6 0 0 1 .443-.178.6.6 0 0 1 .442.178.6.6 0 0 1 .179.443.6.6 0 0 1-.179.442.6.6 0 0 1-.442.179m-2.485 0a.6.6 0 0 1-.442-.179.6.6 0 0 1-.179-.442q0-.264.179-.443a.6.6 0 0 1 .442-.178q.264 0 .443.178a.6.6 0 0 1 .179.443.6.6 0 0 1-.179.442.6.6 0 0 1-.443.179m4.969 0a.6.6 0 0 1-.442-.179.6.6 0 0 1-.179-.442q0-.264.179-.443a.6.6 0 0 1 .442-.178q.264 0 .443.178a.6.6 0 0 1 .178.443.6.6 0 0 1-.178.442.6.6 0 0 1-.443.179m-2.484 2.484a.6.6 0 0 1-.443-.178.6.6 0 0 1-.178-.443.6.6 0 0 1 .178-.442.6.6 0 0 1 .443-.179.6.6 0 0 1 .442.179.6.6 0 0 1 .179.442q0 .264-.179.443a.6.6 0 0 1-.442.178m-2.485 0a.6.6 0 0 1-.442-.178.6.6 0 0 1-.179-.443.6.6 0 0 1 .179-.442.6.6 0 0 1 .442-.179q.264 0 .443.179a.6.6 0 0 1 .179.442q0 .264-.179.443a.6.6 0 0 1-.443.178m4.969 0a.6.6 0 0 1-.442-.178.6.6 0 0 1-.179-.443.6.6 0 0 1 .179-.442.6.6 0 0 1 .442-.179q.264 0 .443.179a.6.6 0 0 1 .178.442.6.6 0 0 1-.178.443.6.6 0 0 1-.443.178M173.647 77.152c0-1.029.835-1.863 1.864-1.863h38.073a1.863 1.863 0 0 1 0 3.727h-38.073a1.864 1.864 0 0 1-1.864-1.864M173.647 87.717c0-.858.696-1.553 1.553-1.553h61.488a1.553 1.553 0 1 1 0 3.105H175.2a1.553 1.553 0 0 1-1.553-1.552"/><path fill="#1545bb" d="M330.363 145H197.829l-24.557-24.654h108.253c1.407 0 2.959-1.357 2.959-3.078V99.115z" opacity=".4" style="mix-blend-mode:multiply"/><path fill="#1b51cb" d="M174.791 113.202c0-.366.297-.663.663-.663h11.353a.663.663 0 0 1 0 1.326h-11.353a.663.663 0 0 1-.663-.663M194.021 113.202c0-.366.296-.663.663-.663h11.352a.663.663 0 0 1 0 1.326h-11.352a.66.66 0 0 1-.663-.663M193.67 105.654a.664.664 0 0 1 .419.857l-2.588 7.141a.662.662 0 1 1-1.247-.452l2.588-7.141a.664.664 0 0 1 .828-.405M212.9 105.654a.663.663 0 0 1 .418.857l-2.588 7.141a.662.662 0 1 1-1.246-.452l2.588-7.141a.664.664 0 0 1 .828-.405M213.977 113.202c0-.366.296-.663.663-.663h22.938a.663.663 0 0 1 0 1.326H214.64a.66.66 0 0 1-.663-.663"/></svg>

<svg width="574" height="145" viewBox="0 0 574 145" fill="none" xmlns="http://www.w3.org/2000/svg">
<path d="M0 105.125V0C80.0813 0 145 64.9187 145 145H39.875C17.8526 145 0 127.147 0 105.125Z" fill="#286AD8"/>
<path d="M527.589 74.2499C545.607 74.2499 560.214 59.6432 560.214 41.625C560.214 23.6067 545.607 9 527.589 9C509.571 9 494.964 23.6067 494.964 41.625C494.964 59.6432 509.571 74.2499 527.589 74.2499Z" fill="#286AD8"/>
<path d="M573.245 145H428.245V0L573.245 145Z" fill="#286AD8"/>
<path d="M246.481 0C268.254 0 285.905 17.8525 285.905 39.8751V145L140.905 145L140.905 0L246.481 0Z" fill="#286AD8"/>
<path d="M284.659 145V-0.000152588L356.995 -0.000152588C397.126 -0.000152588 429.659 32.4592 429.659 72.4999C429.659 112.541 397.126 145 356.995 145L284.659 145Z" fill="#286AD8"/>
<path d="M170.223 99.0703C170.223 97.3552 171.613 95.9648 173.328 95.9648H281.372C283.087 95.9648 284.477 97.3552 284.477 99.0703V117.237C284.477 118.952 283.087 120.343 281.372 120.343H173.328C171.613 120.343 170.223 118.952 170.223 117.237V99.0703Z" fill="#5187DF"/>
<path d="M267.782 114.346C267.441 114.346 267.148 114.224 266.905 113.981C266.662 113.737 266.54 113.445 266.54 113.103V104.408C266.54 104.067 266.662 103.774 266.905 103.531C267.148 103.288 267.441 103.166 267.782 103.166H268.403V102.545C268.403 102.369 268.463 102.221 268.582 102.102C268.701 101.983 268.848 101.924 269.024 101.924C269.2 101.924 269.348 101.983 269.467 102.102C269.586 102.221 269.645 102.369 269.645 102.545V103.166H274.614V102.545C274.614 102.369 274.674 102.221 274.793 102.102C274.912 101.983 275.059 101.924 275.235 101.924C275.411 101.924 275.559 101.983 275.678 102.102C275.797 102.221 275.856 102.369 275.856 102.545V103.166H276.477C276.819 103.166 277.111 103.288 277.355 103.531C277.598 103.774 277.72 104.067 277.72 104.408V113.103C277.72 113.445 277.598 113.737 277.355 113.981C277.111 114.224 276.819 114.346 276.477 114.346H267.782ZM267.782 113.103H276.477V106.893H267.782V113.103ZM267.782 105.65H276.477V104.408H267.782V105.65ZM272.13 109.377C271.954 109.377 271.806 109.317 271.687 109.198C271.568 109.079 271.509 108.932 271.509 108.756C271.509 108.58 271.568 108.432 271.687 108.313C271.806 108.194 271.954 108.135 272.13 108.135C272.306 108.135 272.453 108.194 272.572 108.313C272.691 108.432 272.751 108.58 272.751 108.756C272.751 108.932 272.691 109.079 272.572 109.198C272.453 109.317 272.306 109.377 272.13 109.377ZM269.645 109.377C269.47 109.377 269.322 109.317 269.203 109.198C269.084 109.079 269.024 108.932 269.024 108.756C269.024 108.58 269.084 108.432 269.203 108.313C269.322 108.194 269.47 108.135 269.645 108.135C269.821 108.135 269.969 108.194 270.088 108.313C270.207 108.432 270.267 108.58 270.267 108.756C270.267 108.932 270.207 109.079 270.088 109.198C269.969 109.317 269.821 109.377 269.645 109.377ZM274.614 109.377C274.438 109.377 274.291 109.317 274.172 109.198C274.053 109.079 273.993 108.932 273.993 108.756C273.993 108.58 274.053 108.432 274.172 108.313C274.291 108.194 274.438 108.135 274.614 108.135C274.79 108.135 274.938 108.194 275.057 108.313C275.176 108.432 275.235 108.58 275.235 108.756C275.235 108.932 275.176 109.079 275.057 109.198C274.938 109.317 274.79 109.377 274.614 109.377ZM272.13 111.861C271.954 111.861 271.806 111.802 271.687 111.683C271.568 111.564 271.509 111.416 271.509 111.24C271.509 111.064 271.568 110.917 271.687 110.798C271.806 110.679 271.954 110.619 272.13 110.619C272.306 110.619 272.453 110.679 272.572 110.798C272.691 110.917 272.751 111.064 272.751 111.24C272.751 111.416 272.691 111.564 272.572 111.683C272.453 111.802 272.306 111.861 272.13 111.861ZM269.645 111.861C269.47 111.861 269.322 111.802 269.203 111.683C269.084 111.564 269.024 111.416 269.024 111.24C269.024 111.064 269.084 110.917 269.203 110.798C269.322 110.679 269.47 110.619 269.645 110.619C269.821 110.619 269.969 110.679 270.088 110.798C270.207 110.917 270.267 111.064 270.267 111.24C270.267 111.416 270.207 111.564 270.088 111.683C269.969 111.802 269.821 111.861 269.645 111.861ZM274.614 111.861C274.438 111.861 274.291 111.802 274.172 111.683C274.053 111.564 273.993 111.416 273.993 111.24C273.993 111.064 274.053 110.917 274.172 110.798C274.291 110.679 274.438 110.619 274.614 110.619C274.79 110.619 274.938 110.679 275.057 110.798C275.176 110.917 275.235 111.064 275.235 111.24C275.235 111.416 275.176 111.564 275.057 111.683C274.938 111.802 274.79 111.861 274.614 111.861Z" fill="#1B51CB"/>
<path d="M173.647 77.1523C173.647 76.1233 174.482 75.2891 175.511 75.2891H213.584C214.613 75.2891 215.447 76.1233 215.447 77.1523C215.447 78.1814 214.613 79.0156 213.584 79.0156H175.511C174.482 79.0156 173.647 78.1814 173.647 77.1523Z" fill="#1B51CB"/>
<path d="M173.647 87.7168C173.647 86.8592 174.343 86.1641 175.2 86.1641H236.688C237.546 86.1641 238.241 86.8592 238.241 87.7168C238.241 88.5743 237.546 89.2695 236.688 89.2695H175.2C174.343 89.2695 173.647 88.5743 173.647 87.7168Z" fill="#1B51CB"/>
<g style="mix-blend-mode:multiply" opacity="0.4">
<path d="M330.363 145H197.829L173.272 120.346H281.525C282.932 120.346 284.484 118.989 284.484 117.268V99.1152L330.363 145Z" fill="#1545BB"/>
</g>
<path d="M174.791 113.202C174.791 112.836 175.088 112.539 175.454 112.539H186.807C187.173 112.539 187.47 112.836 187.47 113.202C187.47 113.569 187.173 113.865 186.807 113.865H175.454C175.088 113.865 174.791 113.569 174.791 113.202Z" fill="#1B51CB"/>
<path d="M194.021 113.202C194.021 112.836 194.317 112.539 194.684 112.539H206.036C206.402 112.539 206.699 112.836 206.699 113.202C206.699 113.569 206.402 113.865 206.036 113.865H194.684C194.317 113.865 194.021 113.569 194.021 113.202Z" fill="#1B51CB"/>
<path d="M193.67 105.654C194.027 105.77 194.216 106.158 194.089 106.511L191.501 113.652C191.379 113.988 191.013 114.167 190.673 114.056C190.316 113.941 190.127 113.553 190.254 113.2L192.842 106.059C192.964 105.723 193.33 105.544 193.67 105.654Z" fill="#1B51CB"/>
<path d="M212.9 105.654C213.256 105.77 213.446 106.158 213.318 106.511L210.73 113.652C210.608 113.988 210.242 114.167 209.902 114.056C209.546 113.941 209.356 113.553 209.484 113.2L212.072 106.059C212.194 105.723 212.56 105.544 212.9 105.654Z" fill="#1B51CB"/>
<path d="M213.977 113.202C213.977 112.836 214.273 112.539 214.64 112.539H237.578C237.944 112.539 238.241 112.836 238.241 113.202C238.241 113.569 237.944 113.865 237.578 113.865H214.64C214.273 113.865 213.977 113.569 213.977 113.202Z" fill="#1B51CB"/>
</svg>
